svgs/1F62C.svg

<svg xmlns="http://www.w3.org/2000/svg" xmlns:xlink="http://www.w3.org/1999/xlink" preserveAspectRatio="none" viewBox="0 0 72 72"><defs><path id="a" fill="#FCC21B" d="M127.55 96.25q0-26.85-8.5-46.85Q103.55 12.85 64 12.85T8.9 49.4Q.4 69.4.4 96.25.4 106.6 19 113.9q18.65 7.3 45 7.3t44.95-7.3q18.6-7.3 18.6-17.65z"/><path id="b" fill="#FFF" d="M104.85 97.5q4.15-4.1 4.15-9.9 0-5.75-4.15-9.85-4.1-4.15-9.85-4.15H33q-5.8 0-9.9 4.15-4.1 4.1-4.1 9.85 0 5.8 4.1 9.9 4.1 4.1 9.9 4.1h62q5.75 0 9.85-4.1z"/><path id="c" fill="#2F2F2F" d="M59 43.75q-2.35-2.35-5.55-2.35h-34.9q-3.25 0-5.55 2.35-2.3 2.3-2.3 5.5 0 3.3 2.3 5.6t5.55 2.3h34.9q3.2 0 5.55-2.3 2.3-2.35 2.3-5.6 0-3.2-2.3-5.5m-1.6 1.55q1.65 1.65 1.65 3.95 0 2.35-1.65 4t-3.95 1.65h-34.9q-2.3 0-4-1.65-1.6-1.65-1.6-4 0-2.3 1.6-3.95 1.7-1.65 4-1.65h34.9q2.3 0 3.95 1.65z"/><path id="d" fill="#2F2F2F" d="M50.55 75.2H47.4v25h3.15v-25z"/><path id="e" fill="#2F2F2F" d="M35.55 75.2H32.4v25h3.15v-25z"/><path id="f" fill="#2F2F2F" d="M95.55 75.2H92.4v25h3.15v-25z"/><path id="g" fill="#2F2F2F" d="M80.55 75.2H77.4v25h3.15v-25z"/><path id="h" fill="#2F2F2F" d="M65.55 75.2H62.4v25h3.15v-25z"/><path id="i" fill="#2F2F2F" d="M107.5 89.2v-3.15H20.45v3.15h87.05z"/><path id="j" fill="#2F2F2F" d="M38.35 49.65Q36 52.5 36 56.5q0 4 2.35 6.8 2.3 2.8 5.6 2.8 3.25 0 5.6-2.8 2.3-2.85 2.3-6.8 0-4-2.3-6.85-2.35-2.8-5.6-2.8-3.3 0-5.6 2.8z"/><path id="k" fill="#2F2F2F" d="M84 66.1q3.3 0 5.6-2.8t2.3-6.8q0-4-2.3-6.85-2.3-2.8-5.6-2.8-3.25 0-5.6 2.8-2.3 2.85-2.3 6.85 0 3.95 2.3 6.8 2.35 2.8 5.6 2.8z"/></defs><use transform="scale(.56248)" xlink:href="#a"/><use transform="matrix(.56248 0 0 .56248 0 -2)" xlink:href="#b"/><use transform="translate(0 -2)" xlink:href="#c"/><use transform="matrix(.56248 0 0 .56248 0 -2)" xlink:href="#d"/><use transform="matrix(.56248 0 0 .56248 0 -2)" xlink:href="#e"/><use transform="matrix(.56248 0 0 .56248 0 -2)" xlink:href="#f"/><use transform="matrix(.56248 0 0 .56248 0 -2)" xlink:href="#g"/><use transform="matrix(.56248 0 0 .56248 0 -2)" xlink:href="#h"/><use transform="matrix(.56248 0 0 .56248 0 -2)" xlink:href="#i"/><use transform="matrix(.56248 0 0 .56248 0 -1.5)" xlink:href="#j"/><use transform="matrix(.56248 0 0 .56248 0 -1.5)" xlink:href="#k"/></svg>

<svg xmlns="http://www.w3.org/2000/svg" version="1.1" xmlns:xlink="http://www.w3.org/1999/xlink" preserveAspectRatio="none" x="0px" y="0px" width="72px" height="72px" viewBox="0 0 72 72">
<defs>
<g id="Layer0_0_MEMBER_0_FILL">
<path fill="#FCC21B" stroke="none" d="
M 127.55 96.25
Q 127.55 69.4 119.05 49.4 103.55 12.85 64 12.85 24.45 12.85 8.9 49.4 0.4 69.4 0.4 96.25 0.4 106.6 19 113.9 37.65 121.2 64 121.2 90.35 121.2 108.95 113.9 127.55 106.6 127.55 96.25 Z"/>
</g>

<g id="Layer0_1_FILL">
<path fill="#FFFFFF" stroke="none" d="
M 104.85 97.5
Q 109 93.4 109 87.6 109 81.85 104.85 77.75 100.75 73.6 95 73.6
L 33 73.6
Q 27.2 73.6 23.1 77.75 19 81.85 19 87.6 19 93.4 23.1 97.5 27.2 101.6 33 101.6
L 95 101.6
Q 100.75 101.6 104.85 97.5 Z"/>
</g>

<g id="Layer0_2_FILL">
<path fill="#2F2F2F" stroke="none" d="
M 59 43.75
Q 56.65 41.4 53.45 41.4
L 18.55 41.4
Q 15.3 41.4 13 43.75 10.7 46.05 10.7 49.25 10.7 52.55 13 54.85 15.3 57.15 18.55 57.15
L 53.45 57.15
Q 56.65 57.15 59 54.85 61.3 52.5 61.3 49.25 61.3 46.05 59 43.75
M 57.4 45.3
Q 59.05 46.95 59.05 49.25 59.05 51.6 57.4 53.25 55.75 54.9 53.45 54.9
L 18.55 54.9
Q 16.25 54.9 14.55 53.25 12.95 51.6 12.95 49.25 12.95 46.95 14.55 45.3 16.25 43.65 18.55 43.65
L 53.45 43.65
Q 55.75 43.65 57.4 45.3 Z"/>
</g>

<g id="Layer0_3_MEMBER_0_FILL">
<path fill="#2F2F2F" stroke="none" d="
M 50.55 75.2
L 47.4 75.2 47.4 100.2 50.55 100.2 50.55 75.2 Z"/>
</g>

<g id="Layer0_3_MEMBER_1_FILL">
<path fill="#2F2F2F" stroke="none" d="
M 35.55 75.2
L 32.4 75.2 32.4 100.2 35.55 100.2 35.55 75.2 Z"/>
</g>

<g id="Layer0_3_MEMBER_2_FILL">
<path fill="#2F2F2F" stroke="none" d="
M 95.55 75.2
L 92.4 75.2 92.4 100.2 95.55 100.2 95.55 75.2 Z"/>
</g>

<g id="Layer0_3_MEMBER_3_FILL">
<path fill="#2F2F2F" stroke="none" d="
M 80.55 75.2
L 77.4 75.2 77.4 100.2 80.55 100.2 80.55 75.2 Z"/>
</g>

<g id="Layer0_3_MEMBER_4_FILL">
<path fill="#2F2F2F" stroke="none" d="
M 65.55 75.2
L 62.4 75.2 62.4 100.2 65.55 100.2 65.55 75.2 Z"/>
</g>

<g id="Layer0_3_MEMBER_5_FILL">
<path fill="#2F2F2F" stroke="none" d="
M 107.5 89.2
L 107.5 86.05 20.45 86.05 20.45 89.2 107.5 89.2 Z"/>
</g>

<g id="Layer0_4_MEMBER_0_FILL">
<path fill="#2F2F2F" stroke="none" d="
M 38.35 49.65
Q 36 52.5 36 56.5 36 60.5 38.35 63.3 40.65 66.1 43.95 66.1 47.2 66.1 49.55 63.3 51.85 60.45 51.85 56.5 51.85 52.5 49.55 49.65 47.2 46.85 43.95 46.85 40.65 46.85 38.35 49.65 Z"/>
</g>

<g id="Layer0_4_MEMBER_1_FILL">
<path fill="#2F2F2F" stroke="none" d="
M 84 66.1
Q 87.3 66.1 89.6 63.3 91.9 60.5 91.9 56.5 91.9 52.5 89.6 49.65 87.3 46.85 84 46.85 80.75 46.85 78.4 49.65 76.1 52.5 76.1 56.5 76.1 60.45 78.4 63.3 80.75 66.1 84 66.1 Z"/>
</g>
</defs>

<g id="Layer_1">
<g transform="matrix( 0.5624847412109375, 0, 0, 0.5624847412109375, 0,0) ">
<use xlink:href="#Layer0_0_MEMBER_0_FILL"/>
</g>

<g transform="matrix( 0.5624847412109375, 0, 0, 0.5624847412109375, 0,-2) ">
<use xlink:href="#Layer0_1_FILL"/>
</g>

<g transform="matrix( 1, 0, 0, 1, 0,-2) ">
<use xlink:href="#Layer0_2_FILL"/>
</g>

<g transform="matrix( 0.5624847412109375, 0, 0, 0.5624847412109375, 0,-2) ">
<use xlink:href="#Layer0_3_MEMBER_0_FILL"/>
</g>

<g transform="matrix( 0.5624847412109375, 0, 0, 0.5624847412109375, 0,-2) ">
<use xlink:href="#Layer0_3_MEMBER_1_FILL"/>
</g>

<g transform="matrix( 0.5624847412109375, 0, 0, 0.5624847412109375, 0,-2) ">
<use xlink:href="#Layer0_3_MEMBER_2_FILL"/>
</g>

<g transform="matrix( 0.5624847412109375, 0, 0, 0.5624847412109375, 0,-2) ">
<use xlink:href="#Layer0_3_MEMBER_3_FILL"/>
</g>

<g transform="matrix( 0.5624847412109375, 0, 0, 0.5624847412109375, 0,-2) ">
<use xlink:href="#Layer0_3_MEMBER_4_FILL"/>
</g>

<g transform="matrix( 0.5624847412109375, 0, 0, 0.5624847412109375, 0,-2) ">
<use xlink:href="#Layer0_3_MEMBER_5_FILL"/>
</g>

<g transform="matrix( 0.5624847412109375, 0, 0, 0.5624847412109375, 0,-1.5) ">
<use xlink:href="#Layer0_4_MEMBER_0_FILL"/>
</g>

<g transform="matrix( 0.5624847412109375, 0, 0, 0.5624847412109375, 0,-1.5) ">
<use xlink:href="#Layer0_4_MEMBER_1_FILL"/>
</g>
</g>
</svg>
